X: 9
T: Polonäs efter Erik Alfred Hellmark (nr 9)
R: Polonäs
B: Sörmlands musikarkiv (pdf) sida 5
O: Södermanland
Z: Nils L
M: 3/4
L: 1/16
K: F
c2B2 A2c2 f4 | c2B2 G2B2 A2F2 | cdcB A2c2 f2a2 | gbeg f2c2 A2F2 |
c2B2 A2c2 f4 | c2B2 G2B2 A2F2 | c2B2 A2c2 f2a2 | gbeg f4 F4 ::
(f2ga) (f2ga) (f2ga) | e2gb e2gb e2gb | (f2ga) (f2ga) (f2ga) | e2gb e2gb e2gb |
c2B2 A2c2 f4 | c2B2 G2B2 A2F2 | c2B2 A2c2 f2a2 | gbeg f4 F4 :|

